X: 1235
T: An Dro Des Petits Bateaux
R: reel
M: 4/4
K: Dmajor
|:D2 A2 D2 A2|B2 A2 GFEF|G2 A2 F2 D2|EDEF G2 FE|
D2 A2 D2 A2|B2 A2 GFEF|G2 A2 F2 D2|1 FDEC D2 A,2:|2 FDEC D4||
|:D2 A2 F4|D2 D2 EDEF|G2 A2 F2 D2|FDEC D2 A,2|
D2 A2 F4|D2 D2 EDEF|G2 A2 F2 D2|1 FDEC D2 A,2:|2 FDEC D4||

